X:502
T: "Taubenpost"
N: Z1182
O: Europa, Mitteleuropa, Deutschland, Rhein
R: Liebes - Lied
M: 3/4
L: 1/16
K: Eb
B2Bc | B6A2G2A2 | c2B2B4
e2c2 | B6ABA2G2 | G4F4
B2Bc | B6A2G2A2 | c2B2B4
e2c2 | B6ABA2G2 | G4F4
B2Bc | B6A2A2G2 | G4F4
B2Bc | B6A2A2G2 | G4F4
B2cd | e2c2c2B2B2cd | e2c2c2B2
c2BA | G6B2BAF2 | F4E4
B2cd | e2c2c2B2B2cd | e2c2c2B2
c2BA | G6B2BAF2 | E4z4

@@@ Tune index: 10260
